atlases.vromfs.bin_u/gameuiskin/country_japan_small.svg

<svg xmlns="http://www.w3.org/2000/svg" width="100" height="100"><path d="M0 16h100v68H0z" fill="#FFF"/><path d="m44.9 46.625 34.378-30.631H66.406L42.987 44.813l14.075-28.82h-8.043l-8.514 27.864 2.016-27.863h-6.638l1.958 27.9-8.875-27.9H21.5l13.9 28.939-23.442-28.939L1 16H0l33.538 30.805L0 29.007v9.475l32.555 10.745L0 46v8l32.6-2.17L0 62.1v9.446l33.661-17.325L0 83v1l11.716.01 23.859-27.976L21.071 84.01h8l8.982-27.02-2.023 27.02h6.28l-1.588-27.061 8.242 27.061h8.049L43.17 55.912l23.881 28.1h12.768L45.025 54.041 100 84V69.927L46 51.619 100 56V44.2l-54.037 4.815 54.042-17.25L100 16Z" fill="#BE0026"/><circle cx="39" cy="50" r="16" fill="#BE0026"/></svg>

<svg id="Japan" xmlns="http://www.w3.org/2000/svg" width="100" height="100" viewBox="0 0 100 100">
  <metadata><?xpacket begin="﻿" id="W5M0MpCehiHzreSzNTczkc9d"?>
<x:xmpmeta xmlns:x="adobe:ns:meta/" x:xmptk="Adobe XMP Core 5.6-c138 79.159824, 2016/09/14-01:09:01        ">
   <rdf:RDF xmlns:rdf="http://www.w3.org/1999/02/22-rdf-syntax-ns#">
      <rdf:Description rdf:about=""/>
   </rdf:RDF>
</x:xmpmeta>
                                                                                                    
                                                                                                    
                                                                                                    
                                                                                                    
                                                                                                    
                                                                                                    
                                                                                                    
                                                                                                    
                                                                                                    
                                                                                                    
                                                                                                    
                                                                                                    
                                                                                                    
                                                                                                    
                                                                                                    
                                                                                                    
                                                                                                    
                                                                                                    
                                                                                                    
                                                                                                    
                           
<?xpacket end="w"?></metadata>
<defs>
    <style>
      .cls-1 {
        fill: #e2e2e2;
      }

      .cls-2, .cls-3 {
        fill: #be0026;
      }

      .cls-2 {
        fill-rule: evenodd;
      }
    </style>
  </defs>
  <g id="country_japan">
    <rect class="cls-1" y="16" width="100" height="68"/>
    <path class="cls-2" d="M44.9,46.625L79.278,15.994H66.406L42.987,44.813l14.075-28.82H49.019L40.505,43.857l2.016-27.863H35.883l1.958,27.9-8.875-27.9H21.5l13.9,28.939L11.958,15.994,1,16H0L33.538,46.805,0,29.007v9.475L32.555,49.227,0,46v8l32.6-2.17L0,62.1v9.446L33.661,54.221,0,83v1l11.716,0.01L35.575,56.034,21.071,84.01h8l8.982-27.02L36.03,84.01h6.28L40.722,56.949,48.964,84.01h8.049L43.17,55.912l23.881,28.1H79.819L45.025,54.041,100,84l0-14.073-54-18.308L100,56l0-11.8L45.963,49.015l54.042-17.25L100,16Z"/>
    <circle class="cls-3" cx="39" cy="50" r="16"/>
  </g>
</svg>
